packages/heroicons/src/interstate/outline/clipboard.svg

<svg width="16" height="17" viewBox="0 0 16 17" fill="none" xmlns="http://www.w3.org/2000/svg">
<g clip-path="url(#clip0_1243_4955)">
<path d="M10.7008 2.57039C10.5044 1.87402 9.86436 1.36365 9.10515 1.36365H6.89485C6.13564 1.36365 5.49563 1.87402 5.29921 2.57039M10.7008 2.57039C10.7412 2.71378 10.7629 2.86505 10.7629 3.02137V3.02137C10.7629 3.32655 10.5155 3.57395 10.2103 3.57395H5.7897C5.48452 3.57395 5.23712 3.32655 5.23712 3.02137V3.02137C5.23712 2.86505 5.25876 2.71378 5.29921 2.57039M10.7008 2.57039C11.1769 2.60634 11.6503 2.65172 12.121 2.70634C12.9319 2.80045 13.5258 3.49954 13.5258 4.31587V14.0729C13.5258 14.9884 12.7836 15.7306 11.868 15.7306H4.13197C3.21643 15.7306 2.47424 14.9884 2.47424 14.0729V4.31587C2.47424 3.49954 3.06814 2.80045 3.87902 2.70634C4.34966 2.65172 4.82312 2.60634 5.29921 2.57039" stroke="black" stroke-width="1.5" stroke-linecap="round" stroke-linejoin="round"/>
</g>
<defs>
<clipPath id="clip0_1243_4955">
<rect width="16" height="16" fill="white" transform="translate(0 0.547119)"/>
</clipPath>
</defs>
</svg>

<svg viewBox="0 0 16 17">
  <g clip-path="url(#a)">
    <path stroke="currentColor" stroke-linecap="round" stroke-linejoin="round" stroke-width="1.5" d="M10.7 2.612a1.658 1.658 0 0 0-1.595-1.207h-2.21c-.76 0-1.4.51-1.596 1.207m5.402 0c.04.143.062.294.062.45v0a.553.553 0 0 1-.553.553H5.79a.553.553 0 0 1-.553-.552v0c0-.157.022-.308.062-.451m5.402 0c.476.036.95.081 1.42.136.81.094 1.405.793 1.405 1.61v9.756c0 .916-.742 1.658-1.658 1.658H4.132a1.658 1.658 0 0 1-1.658-1.658V4.357c0-.816.594-1.515 1.405-1.61.47-.054.944-.1 1.42-.135"/>
  </g>
  <defs>
    <clipPath id="a">
      <path d="M0 0h16v16H0z" transform="translate(0 .589)"/>
    </clipPath>
  </defs>
</svg>
